flaticon/essential/divide-1.svg

<svg xmlns="http://www.w3.org/2000/svg" width="32" height="32" viewBox="0 0 24 24">
    <path d="M 0 0 L 0 24 L 24 24 L 24 0 Z M 23.199219 23.199219 L 0.800781 23.199219 L 0.800781 0.800781 L 23.199219 0.800781 Z M 23.199219 23.199219"/>
    <path d="M3.601562 11.601562L20.398438 11.601562 20.398438 12.398438 3.601562 12.398438zM12 8.800781C13.101562 8.800781 14 7.902344 14 6.800781 14 5.695312 13.101562 4.800781 12 4.800781 10.898438 4.800781 10 5.695312 10 6.800781 10 7.902344 10.898438 8.800781 12 8.800781zM12 5.601562C12.660156 5.601562 13.199219 6.136719 13.199219 6.800781 13.199219 7.460938 12.660156 8 12 8 11.339844 8 10.800781 7.460938 10.800781 6.800781 10.800781 6.136719 11.339844 5.601562 12 5.601562zM12 15.199219C10.898438 15.199219 10 16.097656 10 17.199219 10 18.304688 10.898438 19.199219 12 19.199219 13.101562 19.199219 14 18.304688 14 17.199219 14 16.097656 13.101562 15.199219 12 15.199219zM12 18.398438C11.339844 18.398438 10.800781 17.863281 10.800781 17.199219 10.800781 16.539062 11.339844 16 12 16 12.660156 16 13.199219 16.539062 13.199219 17.199219 13.199219 17.863281 12.660156 18.398438 12 18.398438zM12 18.398438"/>
</svg>

<svg xmlns="http://www.w3.org/2000/svg" width="32" height="32" viewBox="0 0 24 24">
    <path d="M0 0v24h24V0zm23.2 23.2H.8V.8h22.4zm0 0"/>
    <path d="M3.602 11.602h16.796v.796H3.602zm0 0M12 8.8c1.102 0 2-.898 2-2 0-1.105-.898-2-2-2-1.102 0-2 .895-2 2 0 1.102.898 2 2 2zm0-3.198A1.2 1.2 0 1 1 12 8a1.2 1.2 0 0 1 0-2.4zm0 0M12 15.2c-1.102 0-2 .898-2 2 0 1.105.898 2 2 2 1.102 0 2-.895 2-2 0-1.102-.898-2-2-2zm0 3.198A1.2 1.2 0 1 1 12 16a1.2 1.2 0 0 1 0 2.4zm0 0"/>
</svg>
